2 Export/Icons/Rounded/1 Player/Volume Off.svg

<svg xmlns="http://www.w3.org/2000/svg" xmlns:xlink="http://www.w3.org/1999/xlink" width="24" height="24" viewBox="0 0 24 24">
  <defs>
    <path id="volume-off-a" d="M3.63 3.63a.996.996 0 0 0 0 1.41L7.29 8.7 7 9H4c-.55 0-1 .45-1 1v4c0 .55.45 1 1 1h3l3.29 3.29c.63.63 1.71.18 1.71-.71v-4.17l4.18 4.18c-.49.37-1.02.68-1.6.91-.36.15-.58.53-.58.92 0 .72.73 1.18 1.39.91.8-.33 1.55-.77 2.22-1.31l1.34 1.34a.996.996 0 1 0 1.41-1.41L5.05 3.63c-.39-.39-1.02-.39-1.42 0zM19 12c0 .82-.15 1.61-.41 2.34l1.53 1.53c.56-1.17.88-2.48.88-3.87 0-3.83-2.4-7.11-5.78-8.4-.59-.23-1.22.23-1.22.86v.19c0 .38.25.71.61.85C17.18 6.54 19 9.06 19 12zm-8.71-6.29l-.17.17L12 7.76V6.41c0-.89-1.08-1.33-1.71-.7zM16.5 12A4.5 4.5 0 0 0 14 7.97v1.79l2.48 2.48c.01-.08.02-.16.02-.24z"/>
  </defs>
  <g fill="none" fill-rule="evenodd">
    <polygon points="24 24 0 24 0 0 24 0" opacity=".87"/>
    <mask id="volume-off-b" fill="#fff">
      <use xlink:href="#volume-off-a"/>
    </mask>
    <use fill="#000" xlink:href="#volume-off-a"/>
    <g fill="#000" mask="url(#volume-off-b)">
      <rect width="24" height="24"/>
    </g>
  </g>
</svg>

<svg xmlns="http://www.w3.org/2000/svg" xmlns:xlink="http://www.w3.org/1999/xlink" width="24" height="24" viewBox="0 0 24 24">
  <defs>
    <path id="volume-off-a" d="M3.63,3.63 C3.24,4.02 3.24,4.65 3.63,5.04 L7.29,8.7 L7,9 L4,9 C3.45,9 3,9.45 3,10 L3,14 C3,14.55 3.45,15 4,15 L7,15 L10.29,18.29 C10.92,18.92 12,18.47 12,17.58 L12,13.41 L16.18,17.59 C15.69,17.96 15.16,18.27 14.58,18.5 C14.22,18.65 14,19.03 14,19.42 C14,20.14 14.73,20.6 15.39,20.33 C16.19,20 16.94,19.56 17.61,19.02 L18.95,20.36 C19.34,20.75 19.97,20.75 20.36,20.36 C20.75,19.97 20.75,19.34 20.36,18.95 L5.05,3.63 C4.66,3.24 4.03,3.24 3.63,3.63 Z M19,12 C19,12.82 18.85,13.61 18.59,14.34 L20.12,15.87 C20.68,14.7 21,13.39 21,12 C21,8.17 18.6,4.89 15.22,3.6 C14.63,3.37 14,3.83 14,4.46 L14,4.65 C14,5.03 14.25,5.36 14.61,5.5 C17.18,6.54 19,9.06 19,12 Z M10.29,5.71 L10.12,5.88 L12,7.76 L12,6.41 C12,5.52 10.92,5.08 10.29,5.71 Z M16.5,12 C16.5,10.23 15.48,8.71 14,7.97 L14,9.76 L16.48,12.24 C16.49,12.16 16.5,12.08 16.5,12 Z"/>
  </defs>
  <g fill="none" fill-rule="evenodd">
    <polygon points="24 24 0 24 0 0 24 0" opacity=".87"/>
    <mask id="volume-off-b" fill="#fff">
      <use xlink:href="#volume-off-a"/>
    </mask>
    <use fill="#000" xlink:href="#volume-off-a"/>
    <g fill="#000" mask="url(#volume-off-b)">
      <rect width="24" height="24"/>
    </g>
  </g>
</svg>
